icon-themes/sifr_svg/cmd/lc_choosepolygon.svg

<svg viewBox="0 0 24 24" xmlns="http://www.w3.org/2000/svg"><path d="m4 2v.5136719 18.4863281h1.7792969l3.1035156-3.353516 1.5624995 2.927735c.361829.702173.913539 1.132515 1.453126 1.294922.615884.186712 1.24984.152208 1.839843-.039063.088614-.028728.174618-.068764.261719-.105469v-6.339843l-.181641-.384766h.181641 5v-1.726562l-13.0585938-11.273438zm2 3h.3867188l9.1562502 8h-4.806641l2.847656 6.166016c.09553.277334.057441.350814-.005859.451172-.06427.102094-.229812.236882-.457031.310546-.22722.07366-.493774.072454-.642578.027344-.09802-.03339-.160339-.08896-.183594-.138672-.945845-1.906757-1.908885-3.806907-2.8652345-5.708984l-3.4296875 3.708984zm9 11v6h7v-6zm2 2h3v2h-3z" fill="#555753"/></svg>

<svg xmlns="http://www.w3.org/2000/svg" viewBox="0 0 24 24">
  <path
     style="fill:#555753"
     d="M 4 2 L 4 2.5136719 L 4 21 L 5.7792969 21 L 8.8828125 17.646484 L 10.445312 20.574219 C 10.807141 21.276392 11.358851 21.706734 11.898438 21.869141 C 12.514322 22.055853 13.148278 22.021349 13.738281 21.830078 C 13.826895 21.80135 13.912899 21.761314 14 21.724609 L 14 15.384766 L 13.818359 15 L 14 15 L 19 15 L 19 13.273438 L 5.9414062 2 L 4 2 z M 6 5 L 6.3867188 5 L 15.542969 13 L 10.736328 13 L 13.583984 19.166016 C 13.679514 19.44335 13.641425 19.51683 13.578125 19.617188 C 13.513855 19.719282 13.348313 19.85407 13.121094 19.927734 C 12.893874 20.001394 12.62732 20.000188 12.478516 19.955078 C 12.380496 19.921688 12.318177 19.866118 12.294922 19.816406 C 11.349077 17.909649 10.386037 16.009499 9.4296875 14.107422 L 6 17.816406 L 6 5 z M 15 16 L 15 22 L 22 22 L 22 16 L 15 16 z M 17 18 L 20 18 L 20 20 L 17 20 L 17 18 z "
     />
</svg>
